X: 37802
T: Sonny Brogan's
R: jig
M: 6/8
K: Adorian
~A3 cBc|dcd ega|~A3 cde|dcA G3|
~A3 cBc|dcd ~e3|~a3 age|1 dcA AGE:|2 dcA ~A3||
|:a3 aba|gef geg|~a3 aba|ged ^cAA|
~a3 aba|gef ~g3|aga age|1 dcA ~A3:|2 dcA AGE||

